img/icons/blockquote.svg

<svg width="30" height="23" fill="none" xmlns="http://www.w3.org/2000/svg"><path opacity=".05" d="M17.668 22.052l-.858-4.158c4.664-.484 6.82-2.662 6.468-6.534h-4.092V.8h10.692v8.91c0 4.224-1.034 7.326-3.102 9.306-2.024 1.936-5.06 2.948-9.108 3.036zm-16.764 0l-.858-4.158c4.664-.484 6.82-2.662 6.468-6.534H2.422V.8h10.692v8.91c0 4.224-1.034 7.326-3.102 9.306-2.024 1.936-5.06 2.948-9.108 3.036z" fill="#2D383F"/></svg>

<svg width="30" height="23" viewBox="0 0 30 23" fill="none" xmlns="http://www.w3.org/2000/svg">
<path opacity="0.05" d="M17.668 22.052L16.81 17.894C21.474 17.41 23.63 15.232 23.278 11.36H19.186V0.799997H29.878V9.71C29.878 13.934 28.844 17.036 26.776 19.016C24.752 20.952 21.716 21.964 17.668 22.052ZM0.904 22.052L0.0460001 17.894C4.71 17.41 6.866 15.232 6.514 11.36H2.422V0.799997H13.114V9.71C13.114 13.934 12.08 17.036 10.012 19.016C7.988 20.952 4.952 21.964 0.904 22.052Z" fill="#2D383F"/>
</svg>
